X:18021
T:Random Notes
R:Jig
C:Trad.
O:England, Northumberland
Z:Paul Hardy's Session Tunebook 2015 (see www.paulhardy.net). Creative Commons cc by-nc-sa licenced.
M:6/8
L:1/8
Q:3/8=90
K:D
"D"d2d fed|"A"cea ecA|"G"B2B "Em"efg|"A"Bed cBA|
"D"d2d fed|"A"cea ecA|"G"BAB "Em"efg|"A"Bec "D"d3:|
|:"D"DFA FAd|Adf dfa|afa "G"geg|"D"fdf "A"ecA|
"D"DFA FAd|Adf dfa|dcB "Bm"fed|"E7"cdB "A"A3:|
|:"D"a^ga "G"b^ab|gfg "A"a^ga|"D"dcd efg|"G"Bed "A"cBA|
"D"a^ga "G"b^ab|"A"gfg "D"a^ga|dcd "G"efg|"A"Bec "D"d2A:|]

